X:20
T:Twopenny Postman. WHG.020
T:Garryowen,aka. WHG.020
R:march
S:W.H.Giles MS,Bampton,Oxfordshire,1839p21
O:England
H:donated by Mrs W.R.Kettlewell to VWML,Apr 1927.
A:Bampton, Oxfordshire
N:Repeat sign only at end of last bar in MS.
Z:PJHeadford – VMP 2009
M:6/8
L:1/8
Q:3/8=120
K:G
g|e>dc B>AG|ded d2g|e>dc B>AG|ABA A2g/f/|
e>dc B>AG|BcB B2d|def g2B|ABA A2||
B/c/|d2B d2B|d2B d2g|e2c e2c|e2c e2f|
g2a b2a|g2e d2B|d>ed g2B|A>BA A2|]

